X:669
T:Planxty O'Flynn
C:O'Carolan
B:O'Neill's 669
Z: 1997 by John Chambers <jc@trillian.mit.edu>
N:"Spirited"
M:6/8
L:1/8
K:G
G \
|GDG GAG|GFDF G2A|B/c/d.B c/d/e.c|Bdd g2a|
|gfe dcB|c/B/c/d/e/c/ ABA|F2D AF/G/A|G3 G2||
||D \
|DB,D DB,D|ECC ECC|F/G/A.A ABA/G/|FDd d2c|
|BAG GgG|GgG ecA|B/c/d.d ded/c/|Bc/B/A/G/ AFD|
|GEC CEC|DFD dcB|c/d/e.A FDF|G3G2|]
